localPackages/DesignSystem/Sources/DesignSystem/Resources/Assets.xcassets/IconSet/ic-file-lines.imageset/ic-file-lines.svg

<svg width="24" height="24" viewBox="0 0 24 24" fill="none" xmlns="http://www.w3.org/2000/svg">
<g id="ic-file-lines">
<path id="Icon" fill-rule="evenodd" clip-rule="evenodd" d="M19.5 9H15.75C14.5074 9 13.5 7.99264 13.5 6.75V3H6C5.17157 3 4.5 3.67157 4.5 4.5V19.5C4.5 20.3284 5.17157 21 6 21H18C18.8284 21 19.5 20.3284 19.5 19.5V9ZM15 3.62132L18.8787 7.5H15.75C15.3358 7.5 15 7.16421 15 6.75V3.62132ZM6 1.5C4.34315 1.5 3 2.84315 3 4.5V19.5C3 21.1569 4.34315 22.5 6 22.5H18C19.6569 22.5 21 21.1569 21 19.5V8.74264C21 7.94699 20.6839 7.18393 20.1213 6.62132L15.8787 2.37868C15.3161 1.81607 14.553 1.5 13.7574 1.5H6ZM7.5 10.5C7.08579 10.5 6.75 10.8358 6.75 11.25C6.75 11.6642 7.08579 12 7.5 12H15.75C16.1642 12 16.5 11.6642 16.5 11.25C16.5 10.8358 16.1642 10.5 15.75 10.5H7.5ZM6.75 14.25C6.75 13.8358 7.08579 13.5 7.5 13.5H12.75C13.1642 13.5 13.5 13.8358 13.5 14.25C13.5 14.6642 13.1642 15 12.75 15H7.5C7.08579 15 6.75 14.6642 6.75 14.25ZM7.5 16.5C7.08579 16.5 6.75 16.8358 6.75 17.25C6.75 17.6642 7.08579 18 7.5 18H15.75C16.1642 18 16.5 17.6642 16.5 17.25C16.5 16.8358 16.1642 16.5 15.75 16.5H7.5Z" fill="#0F0F0F"/>
</g>
</svg>

<svg xmlns="http://www.w3.org/2000/svg" width="24" height="24" viewBox="0 0 24 24">
  <g class="ic-file-lines">
    <path fill-rule="evenodd" d="M19.5 9h-3.75a2.25 2.25 0 0 1-2.25-2.25V3H6a1.5 1.5 0 0 0-1.5 1.5v15A1.5 1.5 0 0 0 6 21h12a1.5 1.5 0 0 0 1.5-1.5V9ZM15 3.621 18.879 7.5H15.75a.75.75 0 0 1-.75-.75V3.621ZM6 1.5a3 3 0 0 0-3 3v15a3 3 0 0 0 3 3h12a3 3 0 0 0 3-3V8.743a3 3 0 0 0-.879-2.122L15.88 2.38a3 3 0 0 0-2.122-.879H6Zm1.5 9a.75.75 0 0 0 0 1.5h8.25a.75.75 0 0 0 0-1.5H7.5Zm-.75 3.75a.75.75 0 0 1 .75-.75h5.25a.75.75 0 0 1 0 1.5H7.5a.75.75 0 0 1-.75-.75Zm.75 2.25a.75.75 0 0 0 0 1.5h8.25a.75.75 0 0 0 0-1.5H7.5Z" class="Icon"/>
  </g>
</svg>
